!!!SOCIAL_FUNCTION:	song with memorial potlatch
!!!PDT:	1939
!!!OTL: No_33_Dream_Song_of_a_Whaler.krn
!!!LANG: Non-Tone
!!!LING_GROUP: Wakashan
!!!REG: Pacific Northwest
**kern
*staff1
=1-
*clefF4
*k[b-e-a-d-]
*M2/4
4r
8r
16r
16A-\
=2
4A-\
8r
8A-\
=3||
*M3/4
2.A-\
=4
(8B-\L
8A-\J)
4G\
8r
8G\
=5||
*M2/4
[2A-\
=6
4A-\]
8B-\L
8B-\J
=7
4A-\
8r
8A-\
=8||
*M3/4
2.A-\
=9
(8A-\L
8B-\J)
4G\
8r
8G\
=10||
*M2/4
[2A-\
=11
4A-\]
8B-\L
8B-\J
=12
4A-\
8r
8A-\
=13
(2A-\
=14
2A-\)
=15
2A-\
*clefG2
=16||
4dd-^\
4r
==
*-
